X: 15
T:Miss Sally Hunter of Thurston
S:The Beauties of Niel Gow
C:Nathaniel Gow
M:6/8
L:1/8
Q:3/8=120
K:D
A|DFA d2A|B2A d2A|Bcd efg|efd cBA |
  DFA d2A|B2A Bcd|egf edc|d3  D2 :|
g|fed g2e|a2f b2g|fef def|efd c>BA|
  fed g2e|a2f g2B|fga Adc|d3  d2g |
  fdf geg|afa bgb|afd Bcd|efd cBA |
  DFA d2A|B2A Bcd|egf edc|d3  D2 |]

A reel from the Borders:

